X:252
T:Sergeant Early's
R:jig
M:6/8
L:1/8
K:Dmaj
AG|FED ~D3|AGE =cde|dcA efd|ecA A2G|
FED EFG|AGE =cde|dcA GEA|~D3 D:|
AB|=c2A Bcd|efd e2d|cAA Bcd|ecA A2B|
=cBA Bcd|eag e2d|dcA GEA|~D3 D:|

